symbols/web/door_front/materialsymbolssharp/door_front_grad200fill1_24px.svg

<svg xmlns="http://www.w3.org/2000/svg" height="24" width="24"><path d="M2.2 21.8v-2.65h2.05V2.2h15.5v16.95h2.05v2.65Zm11.7-8.65q.475 0 .813-.338.337-.337.337-.812 0-.475-.337-.812-.338-.338-.813-.338-.475 0-.812.338-.338.337-.338.812 0 .475.338.812.337.338.812.338Z"/></svg>

<svg xmlns="http://www.w3.org/2000/svg" height="24" width="24"><path d="M2.2 21.8V19.15H4.25V2.2H19.75V19.15H21.8V21.8ZM13.9 13.15Q14.375 13.15 14.713 12.812Q15.05 12.475 15.05 12Q15.05 11.525 14.713 11.188Q14.375 10.85 13.9 10.85Q13.425 10.85 13.088 11.188Q12.75 11.525 12.75 12Q12.75 12.475 13.088 12.812Q13.425 13.15 13.9 13.15Z"/></svg>
